16x16/devices/knemo-modem-transmit.svg

<svg height="16" width="16" xmlns="http://www.w3.org/2000/svg"><g fill="#8b9cbe"><path d="m10 .469v2.531h-3v1h4v-1.469l3.406 2.969-3.406 2.969v-1.469h-3v1h2v2.531l.813-.656 5.187-4.375-5.188-4.375z"/><path d="m6 4.469-.813.656-5.187 4.375 5.188 4.375.812.656v-2.531h3v-1h-4v1.469l-3.406-2.969 3.406-2.969v1.469h3v-1h-2v-1.5z" opacity=".35"/></g></svg>

<svg height="16" width="16" xmlns="http://www.w3.org/2000/svg">
    <g fill="#f4f4f7">
        <path d="M10 .469V3H7v1h4V2.531L14.406 5.5 11 8.469V7H8v1h2v2.531l.813-.656L16 5.5l-5.188-4.375z"/>
        <path d="m6 4.469-.813.656L0 9.5l5.188 4.375.812.656V12h3v-1H5v1.469L1.594 9.5 5 6.531V8h3V7H6V5.5z" opacity=".35"/>
    </g>
</svg>
